X:1
T:Keep Your Hands on That Plow
M:2/2
L:1/4
K:D
 z2 D F| A/2 A G/2 F G| A z D/2D/2 F| A/2A/2 A/2A/2 G F/2 D/2-| D z D F|\
 A A2 G| F/2- D3/2(3F15.9999925000037/23.999988000006F15.9999925000037/23.999988000006D15.9999925000037/23.999988000006F15.9999925000037/23.999988000006D15.9999925000037/23.999988000006C15.9999925000037/23.999988000006|\
 D4| z2 A2| d4-| d- =c- A c| d4| z2 D F| A A2 G| F/2- D3/2(3F15.9999925000037/23.999988000006F15.9999925000037/23.999988000006D15.9999925000037/23.999988000006F15.9999925000037/23.999988000006D15.9999925000037/23.999988000006C15.9999925000037/23.999988000006|\
 D4| z4|
